X: 040929
T: Denis Murphy's Polka
S: "First Collection of Traditional Irish Music" (M.Mulvihill)
Z: B.Black
L: 1/8
M: 2/4
R: polka
K: D
A>BAG EF GE|A>BAG Ad d/e/d/c/|
A>BAG EF GE|AB=cE ED D2 :| 
ed d2 ed=c2|ed^cd ea a/b/a/g/|
ed d2 ed=cB|ABcd efg>f|
ed d2 ed =c2|ed cd ea a/b/a/g/|
ef g2 ed c/e/d/c/ | AB=cE ED D2 ||
